X:5
T:Bourree droite
Z:Jack Campin, 2014
F:http://www.campin.me.uk/Music/YoupNannetteD.abc
S:p15, p1000204.jpg
M:3/8
L:1/16
Q:1/4=120
K:G
D2|B2B2G2|F4  AB|c2A2A2|B2G2\
D2|B2B2G2|F4  AB|c2A2F2|G4 :|
d2|d2BdBd|e2cece|d2dcBA|B2G2\
d2|d2BdBd|e2cece|d2dcBA|G4 :|

